src/actions/16/artifact.svg

<svg xmlns="http://www.w3.org/2000/svg" viewBox="0 0 16 16">
    <path d="M3 2v3h10V2H3zm1 1h8v1H4V3zM3 8v6h7l3-3V8H3zm1 1h8v1H9v3H4V9z" style="fill:currentColor;fill-opacity:1;stroke:none;color:#050505;opacity:.7"/>
    <path d="M2 6v1h2V6H2zm5 0v1h2V6H7zm5 0v1h2V6h-2z" style="fill:currentColor;fill-opacity:1;stroke:none;color:#a0b6cb"/>
</svg>

<svg xmlns="http://www.w3.org/2000/svg" viewBox="0 0 16 16">
  <defs id="defs3051">
    <style type="text/css" id="current-color-scheme">
      .ColorScheme-Text {
        color:#363636;
      }
      .ColorScheme-Highlight {
        color:#3daee9;
      }
      </style>
  </defs>
 <path style="fill:currentColor;fill-opacity:1;stroke:none" 
       d="M 3 2 L 3 5 L 4 5 L 13 5 L 13 4 L 13 2 L 3 2 z M 4 3 L 12 3 L 12 4 L 4 4 L 4 3 z M 3 8 L 3 9 L 3 14 L 10 14 L 13 11 L 13 8 L 4 8 L 3 8 z M 4 9 L 12 9 L 12 10 L 9 10 L 9 13 L 4 13 L 4 9 z "
     class="ColorScheme-Text"
     />
 <path style="fill:currentColor;fill-opacity:1;stroke:none" 
       d="M 2 6 L 2 7 L 4 7 L 4 6 L 2 6 z M 7 6 L 7 7 L 9 7 L 9 6 L 7 6 z M 12 6 L 12 7 L 14 7 L 14 6 L 12 6 z "
     class="ColorScheme-Highlight"
     />
</svg>
